vectors/batocera.svg

<?xml version="1.0" encoding="UTF-8" standalone="no"?>
<!-- Created with Inkscape (http://www.inkscape.org/) -->

<svg
   width="210mm"
   height="297mm"
   viewBox="0 0 210 297"
   version="1.1"
   id="svg1"
   inkscape:version="1.3.2 (091e20ef0f, 2023-11-25)"
   sodipodi:docname="batocera.svg"
   xmlns:inkscape="http://www.inkscape.org/namespaces/inkscape"
   xmlns:sodipodi="http://sodipodi.sourceforge.net/DTD/sodipodi-0.dtd"
   xmlns="http://www.w3.org/2000/svg"
   xmlns:svg="http://www.w3.org/2000/svg">
  <sodipodi:namedview
     id="namedview1"
     pagecolor="#ffffff"
     bordercolor="#000000"
     borderopacity="0.25"
     inkscape:showpageshadow="2"
     inkscape:pageopacity="0.0"
     inkscape:pagecheckerboard="0"
     inkscape:deskcolor="#d1d1d1"
     inkscape:document-units="mm"
     inkscape:zoom="0.92559624"
     inkscape:cx="397.04137"
     inkscape:cy="691.4462"
     inkscape:window-width="2801"
     inkscape:window-height="1058"
     inkscape:window-x="0"
     inkscape:window-y="0"
     inkscape:window-maximized="1"
     inkscape:current-layer="svg1" />
  <defs
     id="defs1">
    <clipPath
       id="clip0_202_10">
      <rect
         width="512"
         height="512"
         fill="#ffffff"
         id="rect2"
         x="0"
         y="0" />
    </clipPath>
  </defs>
  <path
     d="M 475.97,88 256,469 36.0296,88 Z"
     fill="url(#paint0_linear_202_10)"
     stroke="#F8922E"
     stroke-width="2"
     id="path1"
     style="fill:none;stroke:#000000;stroke-opacity:1"
     transform="matrix(0.26458333,0,0,0.26458333,36.28236,74.929164)" />
  <path
     fill-rule="evenodd"
     clip-rule="evenodd"
     d="m 309.455,70.4153 c 26.393,13.0232 32.128,48.4577 11.168,69.0077 -2.976,2.918 -8.146,6.577 -11.487,8.131 -3.341,1.555 -6.289,3.513 -6.551,4.351 -0.262,0.839 -1.858,9.072 -3.547,18.296 l -3.072,16.77 3.469,3.05 c 8.77,7.71 8.828,18.424 0.14,25.596 -18.205,15.027 -50.197,-3.796 -37.137,-21.85 1.664,-2.3 4.356,-4.871 5.981,-5.712 l 2.954,-1.53 0.444,-19.597 c 0.429,-18.952 0.374,-19.644 -1.666,-21.06 -5.195,-3.605 -14.139,-13.81 -16.342,-18.649 -10.489,-23.038 0.818,-50.5579 24.179,-58.8447 4.004,-1.4209 7.612,-1.8081 14.948,-1.6059 8.611,0.2379 10.42,0.6373 16.519,3.6469 z m -82.17,104.8917 13.04,2.409 -2.999,2.595 c -1.65,1.427 -3.913,3.967 -5.031,5.644 -2.847,4.275 -21.616,61.228 -21.603,65.558 0.011,4.115 2.888,9.347 6.411,11.658 1.345,0.882 17.467,4.798 35.827,8.7 18.359,3.902 39.775,8.51 47.591,10.241 18.926,4.191 23.537,4.033 29.284,-0.997 3.758,-3.289 4.796,-7.555 7.265,-29.846 1.379,-12.444 2.954,-26.055 3.501,-30.248 1.322,-10.133 1.309,-19.989 -0.027,-22.489 -1.055,-1.974 -0.999,-1.984 2.091,-0.384 8.937,4.627 15.994,14.746 16.937,24.283 0.699,7.074 -6.472,89.503 -8.252,94.858 -4.198,12.623 -17.486,22.651 -30.019,22.651 -3.27,0 -27.868,-4.93 -127.347,-25.527 -13.544,-2.804 -26.697,-6.116 -29.635,-7.463 -6.873,-3.152 -13.999,-10.374 -17.396,-17.631 -2.308,-4.929 -2.71,-7.147 -2.71,-14.937 0,-8.204 0.331,-9.828 3.215,-15.754 l 3.217,-6.607 0.082,4.361 c 0.364,19.151 27.987,27.536 44.055,13.372 2.997,-2.641 5.059,-5.481 5.725,-7.882 1.478,-5.326 1.299,-14.931 -0.349,-18.777 -1.891,-4.414 -7.279,-9.204 -12.716,-11.308 -5.747,-2.223 -17.825,-2.295 -22.983,-0.137 -2.096,0.877 -3.975,1.43 -4.176,1.228 -0.404,-0.404 20.185,-42.484 22.603,-46.197 5.569,-8.551 17.309,-14.725 26.793,-14.089 2.512,0.168 10.435,1.39 17.606,2.715 z m 26.3,45.475 c 4.525,4.677 13.553,8.95 22.16,10.489 13.683,2.45 28.592,-2.062 36.483,-11.039 l 4.167,-4.741 -0.669,9.118 c -0.946,12.888 -3.833,18.715 -11.847,23.901 -7.514,4.863 -14.372,6.452 -25.31,5.862 -11.342,-0.611 -19.405,-4.18 -26.16,-11.582 -6,-6.574 -6.972,-10.108 -6.385,-23.214 l 0.453,-10.086 1.924,3.963 c 1.059,2.179 3.391,5.477 5.184,7.329 z m -72.8,16.958 c 2.85,1.192 3.52,2.024 3.52,4.37 0,1.594 -0.51,3.408 -1.133,4.032 -0.833,0.835 -0.699,1.754 0.507,3.479 0.903,1.289 1.641,3.007 1.641,3.817 0,2.663 -3.25,5.19 -6.678,5.19 -4.929,0 -13.771,-2.255 -14.305,-3.649 -0.437,-1.139 5.782,-14.646 8.029,-17.441 1.345,-1.672 4.097,-1.606 8.419,0.202 z m -8.154,3.612 c -0.919,1.779 -1.446,3.46 -1.172,3.734 0.274,0.275 2.318,0.744 4.542,1.043 3.448,0.463 4.222,0.209 5.258,-1.729 1.449,-2.711 0.05,-4.564 -4.24,-5.616 -2.33,-0.573 -2.955,-0.208 -4.388,2.568 z m -3.338,7.409 c -0.539,0.676 -1.283,2.219 -1.653,3.432 -0.61,1.994 -0.128,2.327 5.052,3.488 6.307,1.413 9.075,0.578 9.075,-2.741 0,-3.161 -10.484,-6.674 -12.474,-4.179 z m 178.041,51.031 c -0.454,1.118 -1.743,4.423 -2.865,7.343 -2.614,6.801 -9.575,13.845 -15.767,15.958 -5.835,1.991 -15.972,4.399 -24.629,2.42 -3.628,-0.83 -8.196,-1.744 -10.15,-2.034 -1.954,-0.29 -7.891,-1.403 -13.195,-2.474 -11.665,-2.356 -41.132,-9.721 -62.675,-12.964 -1.257,-0.189 -2.284,-0.003 -2.284,0.415 0,1.225 30.706,9.201 66.989,17.399 23.226,5.249 21.558,4.952 31.465,5.592 7.332,0.474 9.541,0.216 14.717,-1.72 11.461,-4.285 20.431,-17.048 19.555,-27.82 -0.268,-3.288 -0.508,-3.727 -1.161,-2.115 z"
     fill="black"
     id="path10"
     style="fill:none"
     transform="matrix(0.26458333,0,0,0.26458333,36.28236,74.929164)" />
  <path
     fill-rule="evenodd"
     clip-rule="evenodd"
     d="m 224.887,168.113 13.04,2.409 -3,2.595 c -1.649,1.427 -3.912,3.967 -5.03,5.644 -2.847,4.275 -21.616,61.228 -21.603,65.558 0.011,4.115 2.888,9.347 6.411,11.658 1.345,0.882 17.467,4.797 35.827,8.699 18.359,3.902 39.775,8.511 47.591,10.242 18.926,4.19 23.537,4.033 29.284,-0.998 3.757,-3.289 4.796,-7.555 7.265,-29.845 1.379,-12.444 2.954,-26.056 3.501,-30.248 1.322,-10.133 1.309,-19.989 -0.027,-22.489 -1.055,-1.974 -0.999,-1.984 2.09,-0.385 8.937,4.628 15.995,14.746 16.938,24.283 0.699,7.074 -6.472,89.504 -8.252,94.858 -4.198,12.624 -17.487,22.652 -30.02,22.652 -3.269,0 -27.867,-4.931 -127.346,-25.527 -13.544,-2.804 -26.697,-6.117 -29.635,-7.464 -6.873,-3.151 -13.999,-10.373 -17.397,-17.63 -2.308,-4.93 -2.71,-7.148 -2.71,-14.937 0,-8.205 0.332,-9.829 3.216,-15.754 l 3.216,-6.607 0.083,4.36 c 0.364,19.151 27.987,27.537 44.055,13.373 2.996,-2.642 5.059,-5.481 5.725,-7.882 1.478,-5.326 1.299,-14.931 -0.349,-18.777 -1.891,-4.414 -7.279,-9.205 -12.716,-11.309 -5.747,-2.223 -17.825,-2.295 -22.984,-0.136 -2.096,0.876 -3.974,1.429 -4.175,1.228 -0.404,-0.405 20.185,-42.485 22.603,-46.198 5.569,-8.551 17.309,-14.724 26.793,-14.088 2.512,0.168 10.435,1.389 17.606,2.715 z m -16.88,94.322 c -2.159,-2.9 -3.507,-11.731 -2.255,-14.77 0.603,-1.465 1.032,-1.026 2.189,2.244 3.601,10.175 3.274,10.056 58.209,21.317 33.142,6.793 49.54,9.733 52.46,9.407 4.43,-0.496 9.916,-4.034 10.993,-7.093 1.044,-2.955 2.816,-2.078 2.054,1.017 -2.012,8.172 -8.217,13.467 -15.78,13.467 -2.631,0 -22.674,-3.677 -44.54,-8.173 l -48.573,-9.943 c -7.761,-1.474 -11.824,-3.532 -14.757,-7.473 z m 134.064,37.505 c 1.122,-2.92 2.411,-6.224 2.865,-7.342 0.652,-1.612 0.893,-1.173 1.161,2.115 0.876,10.772 -8.095,23.535 -19.555,27.82 -5.176,1.935 -7.385,2.193 -14.717,1.72 -9.907,-0.641 -8.239,-0.344 -31.465,-5.592 -36.283,-8.199 -66.989,-16.175 -66.989,-17.399 0,-0.418 1.027,-0.604 2.284,-0.415 21.543,3.242 51.01,8.21 62.675,10.566 5.304,1.071 11.241,2.184 13.195,2.473 1.954,0.29 6.521,1.205 10.15,2.034 8.657,1.979 18.794,1.97 24.629,-0.021 6.192,-2.113 13.153,-9.158 15.767,-15.959 z"
     fill="white"
     id="path11"
     style="fill:#000000"
     transform="matrix(0.26458333,0,0,0.26458333,36.28236,74.929164)" />
  <path
     d="m 251.187,213.588 c 4.525,4.676 13.553,8.949 22.16,10.489 13.683,2.45 28.592,-2.062 36.482,-11.039 l 4.168,-4.742 -0.669,9.118 c -0.946,12.888 -3.833,18.716 -11.847,23.901 -7.514,4.864 -14.372,6.452 -25.311,5.863 -11.341,-0.611 -19.404,-4.181 -26.159,-11.582 -6,-6.574 -6.972,-10.108 -6.385,-23.215 l 0.453,-10.086 1.924,3.963 c 1.059,2.18 3.391,5.478 5.184,7.33 z"
     fill="white"
     id="path12"
     style="fill:#000000"
     transform="matrix(0.26458333,0,0,0.26458333,36.28236,74.929164)" />
  <path
     d="m 307.056,63.2209 c 26.394,13.0232 32.129,48.4581 11.168,69.0081 -2.976,2.918 -8.145,6.577 -11.486,8.131 -3.342,1.555 -6.289,3.513 -6.551,4.351 -0.262,0.839 -1.858,9.071 -3.547,18.295 l -3.072,16.771 3.469,3.049 c 8.77,7.711 8.828,18.425 0.14,25.596 -18.205,15.028 -50.197,-3.795 -37.137,-21.849 1.664,-2.3 4.356,-4.871 5.981,-5.712 l 2.954,-1.53 0.444,-19.597 c 0.429,-18.952 0.374,-19.645 -1.666,-21.06 -5.196,-3.606 -14.139,-13.81 -16.342,-18.649 -10.489,-23.0381 0.818,-50.5583 24.179,-58.845 4.004,-1.421 7.612,-1.8082 14.948,-1.606 8.611,0.2379 10.419,0.6373 16.518,3.6469 z"
     fill="white"
     id="path13"
     style="fill:#000000"
     transform="matrix(0.26458333,0,0,0.26458333,36.28236,74.929164)" />
  <path
     d="m 200.413,255.993 c -2.475,11.661 -16.034,18.662 -30.285,15.638 -21.074,-4.472 -21.752,-15.638 -21.752,-30.801 2.474,-11.661 16.033,-18.662 30.285,-15.638 21.752,4.615 23.38,14.389 21.752,30.801 z"
     fill="#831308"
     id="path14"
     style="fill:#000000"
     transform="matrix(0.26458333,0,0,0.26458333,36.28236,74.929164)" />
  <path
     d="m 200.413,248.799 c -2.475,11.66 -16.034,18.661 -30.285,15.637 -14.252,-3.024 -23.799,-14.928 -21.325,-26.588 2.474,-11.661 16.033,-18.662 30.285,-15.638 14.251,3.024 23.799,14.928 21.325,26.589 z"
     fill="#BF1617"
     id="path15"
     style="fill:#000000"
     transform="matrix(0.26458333,0,0,0.26458333,36.28236,74.929164)" />
  <path
     fill-rule="evenodd"
     clip-rule="evenodd"
     d="m 179.586,232.944 c 2.85,1.192 3.52,2.024 3.52,4.37 0,1.594 -0.509,3.408 -1.132,4.032 -0.834,0.835 -0.7,1.753 0.507,3.478 0.902,1.29 1.64,3.008 1.64,3.818 0,2.663 -3.25,5.19 -6.677,5.19 -4.929,0 -13.772,-2.256 -14.306,-3.649 -0.436,-1.14 5.783,-14.647 8.03,-17.442 1.345,-1.672 4.096,-1.606 8.418,0.203 z m -9.325,7.346 c -0.274,-0.274 0.252,-1.955 1.172,-3.734 1.433,-2.776 2.057,-3.141 4.388,-2.569 4.29,1.052 5.689,2.905 4.239,5.617 -1.035,1.937 -1.809,2.191 -5.257,1.729 -2.224,-0.299 -4.268,-0.768 -4.542,-1.043 z m -3.82,7.107 c 0.371,-1.213 1.115,-2.757 1.654,-3.433 1.99,-2.494 12.474,1.019 12.474,4.18 0,3.318 -2.768,4.154 -9.075,2.741 -5.181,-1.162 -5.663,-1.494 -5.053,-3.488 z"
     fill="#ffffff"
     id="path16"
     transform="matrix(0.26458333,0,0,0.26458333,36.28236,74.929164)" />
</svg>

<svg width="512" height="512" viewBox="0 0 512 512" fill="none" xmlns="http://www.w3.org/2000/svg">
<defs>
<linearGradient id="paint0_linear_202_10" x1="256" y1="471" x2="256.6" y2="90.8969" gradientUnits="userSpaceOnUse">
<stop stop-color="#E3117B"/>
<stop offset="1" stop-color="#FBBC38"/>
</linearGradient>
<clipPath id="clip0_202_10">
<rect width="512" height="512" fill="white"/>
</clipPath>
</defs>
<g clip-path="url(#clip0_202_10)">
<path d="M475.97 88L256 469L36.0296 88L475.97 88Z" fill="url(#paint0_linear_202_10)" stroke="#F8922E" stroke-width="2"/>
<path fill-rule="evenodd" clip-rule="evenodd" d="M309.455 70.4153C335.848 83.4385 341.583 118.873 320.623 139.423C317.647 142.341 312.477 146 309.136 147.554C305.795 149.109 302.847 151.067 302.585 151.905C302.323 152.744 300.727 160.977 299.038 170.201L295.966 186.971L299.435 190.021C308.205 197.731 308.263 208.445 299.575 215.617C281.37 230.644 249.378 211.821 262.438 193.767C264.102 191.467 266.794 188.896 268.419 188.055L271.373 186.525L271.817 166.928C272.246 147.976 272.191 147.284 270.151 145.868C264.956 142.263 256.012 132.058 253.809 127.219C243.32 104.181 254.627 76.6611 277.988 68.3743C281.992 66.9534 285.6 66.5662 292.936 66.7684C301.547 67.0063 303.356 67.4057 309.455 70.4153ZM227.285 175.307L240.325 177.716L237.326 180.311C235.676 181.738 233.413 184.278 232.295 185.955C229.448 190.23 210.679 247.183 210.692 251.513C210.703 255.628 213.58 260.86 217.103 263.171C218.448 264.053 234.57 267.969 252.93 271.871C271.289 275.773 292.705 280.381 300.521 282.112C319.447 286.303 324.058 286.145 329.805 281.115C333.563 277.826 334.601 273.56 337.07 251.269C338.449 238.825 340.024 225.214 340.571 221.021C341.893 210.888 341.88 201.032 340.544 198.532C339.489 196.558 339.545 196.548 342.635 198.148C351.572 202.775 358.629 212.894 359.572 222.431C360.271 229.505 353.1 311.934 351.32 317.289C347.122 329.912 333.834 339.94 321.301 339.94C318.031 339.94 293.433 335.01 193.954 314.413C180.41 311.609 167.257 308.297 164.319 306.95C157.446 303.798 150.32 296.576 146.923 289.319C144.615 284.39 144.213 282.172 144.213 274.382C144.213 266.178 144.544 264.554 147.428 258.628L150.645 252.021L150.727 256.382C151.091 275.533 178.714 283.918 194.782 269.754C197.779 267.113 199.841 264.273 200.507 261.872C201.985 256.546 201.806 246.941 200.158 243.095C198.267 238.681 192.879 233.891 187.442 231.787C181.695 229.564 169.617 229.492 164.459 231.65C162.363 232.527 160.484 233.08 160.283 232.878C159.879 232.474 180.468 190.394 182.886 186.681C188.455 178.13 200.195 171.956 209.679 172.592C212.191 172.76 220.114 173.982 227.285 175.307ZM253.585 220.782C258.11 225.459 267.138 229.732 275.745 231.271C289.428 233.721 304.337 229.209 312.228 220.232L316.395 215.491L315.726 224.609C314.78 237.497 311.893 243.324 303.879 248.51C296.365 253.373 289.507 254.962 278.569 254.372C267.227 253.761 259.164 250.192 252.409 242.79C246.409 236.216 245.437 232.682 246.024 219.576L246.477 209.49L248.401 213.453C249.46 215.632 251.792 218.93 253.585 220.782ZM180.785 237.74C183.635 238.932 184.305 239.764 184.305 242.11C184.305 243.704 183.795 245.518 183.172 246.142C182.339 246.977 182.473 247.896 183.679 249.621C184.582 250.91 185.32 252.628 185.32 253.438C185.32 256.101 182.07 258.628 178.642 258.628C173.713 258.628 164.871 256.373 164.337 254.979C163.9 253.84 170.119 240.333 172.366 237.538C173.711 235.866 176.463 235.932 180.785 237.74ZM172.631 241.352C171.712 243.131 171.185 244.812 171.459 245.086C171.733 245.361 173.777 245.83 176.001 246.129C179.449 246.592 180.223 246.338 181.259 244.4C182.708 241.689 181.309 239.836 177.019 238.784C174.689 238.211 174.064 238.576 172.631 241.352ZM169.293 248.761C168.754 249.437 168.01 250.98 167.64 252.193C167.03 254.187 167.512 254.52 172.692 255.681C178.999 257.094 181.767 256.259 181.767 252.94C181.767 249.779 171.283 246.266 169.293 248.761ZM347.334 299.792C346.88 300.91 345.591 304.215 344.469 307.135C341.855 313.936 334.894 320.98 328.702 323.093C322.867 325.084 312.73 327.492 304.073 325.513C300.445 324.683 295.877 323.769 293.923 323.479C291.969 323.189 286.032 322.076 280.728 321.005C269.063 318.649 239.596 311.284 218.053 308.041C216.796 307.852 215.769 308.038 215.769 308.456C215.769 309.681 246.475 317.657 282.758 325.855C305.984 331.104 304.316 330.807 314.223 331.447C321.555 331.921 323.764 331.663 328.94 329.727C340.401 325.442 349.371 312.679 348.495 301.907C348.227 298.619 347.987 298.18 347.334 299.792Z" fill="black"/>
<path fill-rule="evenodd" clip-rule="evenodd" d="M224.887 168.113L237.927 170.522L234.927 173.117C233.278 174.544 231.015 177.084 229.897 178.761C227.05 183.036 208.281 239.989 208.294 244.319C208.305 248.434 211.182 253.666 214.705 255.977C216.05 256.859 232.172 260.774 250.532 264.676C268.891 268.578 290.307 273.187 298.123 274.918C317.049 279.108 321.66 278.951 327.407 273.92C331.164 270.631 332.203 266.365 334.672 244.075C336.051 231.631 337.626 218.019 338.173 213.827C339.495 203.694 339.482 193.838 338.146 191.338C337.091 189.364 337.147 189.354 340.236 190.953C349.173 195.581 356.231 205.699 357.174 215.236C357.873 222.31 350.702 304.74 348.922 310.094C344.724 322.718 331.435 332.746 318.902 332.746C315.633 332.746 291.035 327.815 191.556 307.219C178.012 304.415 164.859 301.102 161.921 299.755C155.048 296.604 147.922 289.382 144.524 282.125C142.216 277.195 141.814 274.977 141.814 267.188C141.814 258.983 142.146 257.359 145.03 251.434L148.246 244.827L148.329 249.187C148.693 268.338 176.316 276.724 192.384 262.56C195.38 259.918 197.443 257.079 198.109 254.678C199.587 249.352 199.408 239.747 197.76 235.901C195.869 231.487 190.481 226.696 185.044 224.592C179.297 222.369 167.219 222.297 162.06 224.456C159.964 225.332 158.086 225.885 157.885 225.684C157.481 225.279 178.07 183.199 180.488 179.486C186.057 170.935 197.797 164.762 207.281 165.398C209.793 165.566 217.716 166.787 224.887 168.113ZM208.007 262.435C205.848 259.535 204.5 250.704 205.752 247.665C206.355 246.2 206.784 246.639 207.941 249.909C211.542 260.084 211.215 259.965 266.15 271.226C299.292 278.019 315.69 280.959 318.61 280.633C323.04 280.137 328.526 276.599 329.603 273.54C330.647 270.585 332.419 271.462 331.657 274.557C329.645 282.729 323.44 288.024 315.877 288.024C313.246 288.024 293.203 284.347 271.337 279.851L222.764 269.908C215.003 268.434 210.94 266.376 208.007 262.435ZM342.071 299.94C343.193 297.02 344.482 293.716 344.936 292.598C345.588 290.986 345.829 291.425 346.097 294.713C346.973 305.485 338.002 318.248 326.542 322.533C321.366 324.468 319.157 324.726 311.825 324.253C301.918 323.612 303.586 323.909 280.36 318.661C244.077 310.462 213.371 302.486 213.371 301.262C213.371 300.844 214.398 300.658 215.655 300.847C237.198 304.089 266.665 309.057 278.33 311.413C283.634 312.484 289.571 313.597 291.525 313.886C293.479 314.176 298.046 315.091 301.675 315.92C310.332 317.899 320.469 317.89 326.304 315.899C332.496 313.786 339.457 306.741 342.071 299.94Z" fill="white"/>
<path d="M251.187 213.588C255.712 218.264 264.74 222.537 273.347 224.077C287.03 226.527 301.939 222.015 309.829 213.038L313.997 208.296L313.328 217.414C312.382 230.302 309.495 236.13 301.481 241.315C293.967 246.179 287.109 247.767 276.17 247.178C264.829 246.567 256.766 242.997 250.011 235.596C244.011 229.022 243.039 225.488 243.626 212.381L244.079 202.295L246.003 206.258C247.062 208.438 249.394 211.736 251.187 213.588Z" fill="white"/>
<path d="M307.056 63.2209C333.45 76.2441 339.185 111.679 318.224 132.229C315.248 135.147 310.079 138.806 306.738 140.36C303.396 141.915 300.449 143.873 300.187 144.711C299.925 145.55 298.329 153.782 296.64 163.006L293.568 179.777L297.037 182.826C305.807 190.537 305.865 201.251 297.177 208.422C278.972 223.45 246.98 204.627 260.04 186.573C261.704 184.273 264.396 181.702 266.021 180.861L268.975 179.331L269.419 159.734C269.848 140.782 269.793 140.089 267.753 138.674C262.557 135.068 253.614 124.864 251.411 120.025C240.922 96.9869 252.229 69.4667 275.59 61.18C279.594 59.759 283.202 59.3718 290.538 59.574C299.149 59.8119 300.957 60.2113 307.056 63.2209Z" fill="white"/>
<path d="M200.413 255.993C197.938 267.654 184.379 274.655 170.128 271.631C149.054 267.159 148.376 255.993 148.376 240.83C150.85 229.169 164.409 222.168 178.661 225.192C200.413 229.807 202.041 239.581 200.413 255.993Z" fill="#831308"/>
<path d="M200.413 248.799C197.938 260.459 184.379 267.46 170.128 264.436C155.876 261.412 146.329 249.508 148.803 237.848C151.277 226.187 164.836 219.186 179.088 222.21C193.339 225.234 202.887 237.138 200.413 248.799Z" fill="#BF1617"/>
<path fill-rule="evenodd" clip-rule="evenodd" d="M179.586 232.944C182.436 234.136 183.106 234.968 183.106 237.314C183.106 238.908 182.597 240.722 181.974 241.346C181.14 242.181 181.274 243.099 182.481 244.824C183.383 246.114 184.121 247.832 184.121 248.642C184.121 251.305 180.871 253.832 177.444 253.832C172.515 253.832 163.672 251.576 163.138 250.183C162.702 249.043 168.921 235.536 171.168 232.741C172.513 231.069 175.264 231.135 179.586 232.944ZM170.261 240.29C169.987 240.016 170.513 238.335 171.433 236.556C172.866 233.78 173.49 233.415 175.821 233.987C180.111 235.039 181.51 236.892 180.06 239.604C179.025 241.541 178.251 241.795 174.803 241.333C172.579 241.034 170.535 240.565 170.261 240.29ZM166.441 247.397C166.812 246.184 167.556 244.64 168.095 243.964C170.085 241.47 180.569 244.983 180.569 248.144C180.569 251.462 177.801 252.298 171.494 250.885C166.313 249.723 165.831 249.391 166.441 247.397Z" fill="white"/>
</g>
</svg>
